dist/img/icons/socials/02.svg

<svg width="32" height="32" viewBox="0 0 32 32" fill="none" xmlns="http://www.w3.org/2000/svg">
<path d="M16.0013 2.66663C23.3653 2.66663 29.3347 8.63596 29.3347 16C29.3347 23.364 23.3653 29.3333 16.0013 29.3333C13.645 29.3371 11.3302 28.7135 9.29465 27.5266L2.67332 29.3333L4.47599 22.7093C3.28811 20.6731 2.66405 18.3573 2.66799 16C2.66799 8.63596 8.63732 2.66663 16.0013 2.66663ZM11.4573 9.73329L11.1907 9.74396C11.018 9.75447 10.8493 9.79983 10.6947 9.87729C10.55 9.9592 10.418 10.0616 10.3027 10.1813C10.1427 10.332 10.052 10.4626 9.95465 10.5893C9.46148 11.2305 9.19595 12.0177 9.19999 12.8266C9.20265 13.48 9.37332 14.116 9.63999 14.7106C10.1853 15.9133 11.0827 17.1866 12.2667 18.3666C12.552 18.6506 12.832 18.936 13.1333 19.2013C14.6045 20.4966 16.3577 21.4307 18.2533 21.9293L19.0107 22.0453C19.2573 22.0586 19.504 22.04 19.752 22.028C20.1403 22.0079 20.5195 21.9028 20.8627 21.72C21.0373 21.63 21.2077 21.5321 21.3733 21.4266C21.3733 21.4266 21.4307 21.3893 21.54 21.3066C21.72 21.1733 21.8307 21.0786 21.98 20.9226C22.0907 20.808 22.1867 20.6733 22.26 20.52C22.364 20.3026 22.468 19.888 22.5107 19.5426C22.5427 19.2786 22.5333 19.1346 22.5293 19.0453C22.524 18.9026 22.4053 18.7546 22.276 18.692L21.5 18.344C21.5 18.344 20.34 17.8386 19.6307 17.516C19.5564 17.4836 19.4769 17.465 19.396 17.4613C19.3048 17.4519 19.2126 17.4622 19.1257 17.4914C19.0387 17.5206 18.9591 17.5681 18.892 17.6306C18.8853 17.628 18.796 17.704 17.832 18.872C17.7767 18.9463 17.7004 19.0025 17.6131 19.0334C17.5257 19.0642 17.4311 19.0684 17.3413 19.0453C17.2545 19.022 17.1694 18.9926 17.0867 18.9573C16.9213 18.888 16.864 18.8613 16.7507 18.8133C15.9854 18.4794 15.2769 18.0282 14.6507 17.476C14.4827 17.3293 14.3267 17.1693 14.1667 17.0146C13.6421 16.5123 13.185 15.944 12.8067 15.324L12.728 15.1973C12.6715 15.1122 12.6258 15.0204 12.592 14.924C12.5413 14.728 12.6733 14.5706 12.6733 14.5706C12.6733 14.5706 12.9973 14.216 13.148 14.024C13.2947 13.8373 13.4187 13.656 13.4987 13.5266C13.656 13.2733 13.7053 13.0133 13.6227 12.812C13.2493 11.9 12.8627 10.992 12.4653 10.0906C12.3867 9.91196 12.1533 9.78396 11.9413 9.75863C11.8693 9.75063 11.7973 9.74263 11.7253 9.73729C11.5463 9.7284 11.3668 9.73018 11.188 9.74263L11.456 9.73196L11.4573 9.73329Z" fill="#28579A"/>
</svg>

<svg width="32" height="32" fill="none" xmlns="http://www.w3.org/2000/svg"><path d="M16.001 2.667c7.364 0 13.334 5.969 13.334 13.333S23.365 29.333 16 29.333a13.272 13.272 0 01-6.706-1.806l-6.622 1.806 1.803-6.624A13.27 13.27 0 012.668 16c0-7.364 5.97-13.333 13.333-13.333zm-4.544 7.066l-.266.011a1.28 1.28 0 00-.496.133 1.722 1.722 0 00-.392.304c-.16.151-.251.282-.348.408a3.64 3.64 0 00-.755 2.238c.003.653.173 1.289.44 1.884.545 1.202 1.443 2.476 2.627 3.656.285.284.565.569.866.834a12.597 12.597 0 005.12 2.728l.758.116c.246.014.493-.005.741-.017.388-.02.768-.125 1.11-.308.175-.09.346-.188.511-.293 0 0 .058-.038.167-.12.18-.134.29-.228.44-.384.11-.115.207-.25.28-.403.104-.217.208-.632.25-.977.033-.264.023-.408.02-.498-.006-.142-.125-.29-.254-.353l-.776-.348s-1.16-.505-1.87-.828a.663.663 0 00-.234-.055.642.642 0 00-.504.17c-.007-.003-.096.073-1.06 1.241a.467.467 0 01-.49.173 1.91 1.91 0 01-.255-.088c-.166-.069-.223-.096-.336-.144a8.03 8.03 0 01-2.1-1.337c-.168-.147-.324-.307-.484-.461a8.393 8.393 0 01-1.36-1.691l-.079-.127a1.23 1.23 0 01-.136-.273c-.05-.196.081-.353.081-.353s.324-.355.475-.547c.147-.187.27-.368.35-.497.158-.254.207-.514.125-.715-.374-.912-.76-1.82-1.158-2.721-.078-.179-.312-.307-.524-.332a5.933 5.933 0 00-.216-.022 4.514 4.514 0 00-.537.006l.268-.011.001.001z" fill="#28579A"/></svg>
